libs/ui/packages/crypto-icons/src/svg/RCN.svg

<svg width="24" height="24" viewBox="0 0 24 24" fill="none">
<path d="M10.7701 4.97021C11.4076 4.85171 12.0601 4.86521 12.7051 4.89746C13.4491 4.98446 14.1946 5.14046 14.8786 5.44796C16.2447 6.01881 17.4026 6.9953 18.1959 8.24546C18.4906 8.67521 18.6886 9.15671 18.8874 9.63446C19.0719 9.34046 19.2369 9.03446 19.3974 8.72696C19.4664 8.58221 19.6111 8.47046 19.7799 8.47796C19.8921 8.4692 20.0034 8.50408 20.0906 8.57533C20.1778 8.64658 20.2341 8.74871 20.2479 8.86046C20.2666 9.04046 20.1534 9.19571 20.0791 9.35171C19.8451 9.82421 19.5429 10.2607 19.2301 10.6867C19.1724 10.7482 19.1964 10.8337 19.2031 10.9087C19.5511 12.9615 18.8889 15.1462 17.4781 16.6927C16.6648 17.5967 15.6399 18.2847 14.4954 18.6952C13.1769 19.1565 11.7249 19.2607 10.3614 18.9382C8.38436 18.51 6.63536 17.2065 5.64086 15.477C5.42336 15.1267 5.28461 14.7375 5.11286 14.3655C4.92536 14.6542 4.76636 14.958 4.60661 15.261C4.56908 15.3361 4.5126 15.4 4.44275 15.4466C4.3729 15.4932 4.29211 15.5207 4.20836 15.5265C3.92261 15.5265 3.66311 15.219 3.77786 14.9452C4.02386 14.3797 4.36061 13.8562 4.73786 13.3672C4.81886 13.2825 4.80761 13.1625 4.79261 13.0567C4.65253 12.1542 4.69332 11.2328 4.91261 10.3462C5.49011 7.85321 7.56011 5.77121 10.0689 5.12246C10.3014 5.06771 10.5339 5.00996 10.7701 4.97021ZM8.99861 6.47771C7.66886 7.17671 6.59861 8.34596 6.04361 9.72671C5.72261 10.5607 5.55911 11.4577 5.60861 12.3502C5.74944 12.2445 5.88369 12.1303 6.01061 12.0082C6.75686 11.3422 7.63061 10.8262 8.54411 10.4152C10.2414 9.64346 12.1104 9.31121 13.9674 9.22121C13.3396 8.57021 12.6586 7.96946 12.0309 7.31846C12.2289 7.10096 12.4434 6.89996 12.6579 6.69896C12.9016 6.91946 13.1266 7.15871 13.3651 7.38446C14.1376 8.15321 14.9334 8.89946 15.6931 9.67871C14.8831 10.4865 14.0521 11.274 13.2421 12.0817C13.1738 12.1459 13.1022 12.2065 13.0276 12.2632C12.8236 12.0577 12.5866 11.8777 12.4231 11.637C12.9211 11.115 13.4881 10.6575 13.9659 10.1167C13.1094 10.1287 12.2574 10.2502 11.4189 10.4167C10.7416 10.5375 10.0906 10.7662 9.44036 10.9845C8.07836 11.4945 6.82211 12.3075 5.86436 13.395C5.80736 13.4512 5.81561 13.5345 5.83061 13.605C5.94386 14.091 6.15761 14.5455 6.39161 14.985C7.16411 16.3777 8.49911 17.454 10.0329 17.94C10.9299 18.216 11.8869 18.3225 12.8199 18.1927C14.1241 18.0289 15.347 17.4701 16.3246 16.5915C17.7234 15.3585 18.5079 13.4797 18.3871 11.6355C18.2394 11.7502 18.1074 11.8807 17.9694 12.0052C17.0312 12.8123 15.9521 13.4393 14.7864 13.8547C13.2714 14.4172 11.6574 14.7082 10.0411 14.754C10.1821 14.9385 10.3561 15.093 10.5204 15.2572C11.0041 15.7282 11.4811 16.2052 11.9724 16.6687C11.7834 16.8915 11.5629 17.0857 11.3544 17.2897C11.1451 17.1195 10.9644 16.9215 10.7694 16.7347C10.0389 16.0267 9.31586 15.3097 8.58686 14.5987C8.48592 14.5069 8.39307 14.4065 8.30936 14.2987C8.62511 13.9597 8.98811 13.6672 9.31136 13.3357C9.86636 12.7995 10.4064 12.2475 10.9681 11.718C11.1781 11.922 11.3986 12.117 11.5854 12.3427C11.0859 12.8602 10.5541 13.347 10.0479 13.8577C10.6029 13.8855 11.1504 13.7902 11.7009 13.7377C12.0984 13.6957 12.4891 13.6057 12.8814 13.524C14.8951 13.059 16.8564 12.1027 18.2079 10.527C17.6904 8.28896 15.7876 6.44696 13.5234 5.92646C12.0151 5.54321 10.3704 5.76146 8.99861 6.47771Z" fill="#3555F9"/>
</svg>

<svg width="24" height="24" viewBox="0 0 24 24" fill="none"><path fill="#3555f9" d="M10.77 4.97c.638-.118 1.29-.105 1.935-.073.744.087 1.49.243 2.174.551a7.23 7.23 0 0 1 3.317 2.797c.295.43.493.912.691 1.39.185-.295.35-.6.51-.908a.42.42 0 0 1 .383-.249.437.437 0 0 1 .468.382c.019.18-.095.336-.169.492-.234.472-.536.909-.849 1.335-.058.061-.034.147-.027.222.348 2.052-.314 4.237-1.725 5.784a7.35 7.35 0 0 1-2.983 2.002c-1.318.462-2.77.566-4.134.243-1.977-.428-3.726-1.732-4.72-3.461-.218-.35-.356-.74-.528-1.111-.188.288-.347.592-.506.895a.48.48 0 0 1-.399.266c-.285 0-.545-.308-.43-.582a7.5 7.5 0 0 1 .96-1.578c.08-.085.07-.205.055-.31-.14-.903-.1-1.824.12-2.71.577-2.494 2.647-4.576 5.156-5.225.232-.054.465-.112.701-.152M9 6.478a6.42 6.42 0 0 0-2.955 3.249 6.4 6.4 0 0 0-.435 2.623q.21-.158.402-.342c.746-.666 1.62-1.182 2.533-1.593 1.697-.772 3.566-1.104 5.423-1.194-.627-.65-1.308-1.252-1.936-1.903.198-.217.412-.418.627-.619.244.22.469.46.707.685.773.77 1.568 1.515 2.328 2.295-.81.807-1.64 1.595-2.45 2.403q-.104.096-.215.181c-.204-.205-.441-.385-.605-.626.498-.522 1.065-.98 1.543-1.52-.857.012-1.709.133-2.547.3-.677.12-1.328.35-1.979.568-1.362.51-2.618 1.322-3.576 2.41-.057.056-.048.14-.033.21.113.486.327.94.56 1.38.773 1.393 2.108 2.469 3.642 2.955.897.276 1.854.383 2.787.253a6.45 6.45 0 0 0 3.505-1.602c1.398-1.233 2.183-3.111 2.062-4.956-.148.115-.28.246-.418.37a10.1 10.1 0 0 1-3.183 1.85 14.9 14.9 0 0 1-4.745.899c.141.184.315.339.48.503.483.471.96.948 1.451 1.412-.189.223-.41.417-.618.62-.209-.17-.39-.367-.585-.554-.73-.708-1.453-1.425-2.182-2.136a2.4 2.4 0 0 1-.278-.3c.316-.34.68-.632 1.002-.963.555-.537 1.095-1.088 1.657-1.618.21.204.43.399.617.625-.5.517-1.03 1.004-1.537 1.515.555.027 1.102-.068 1.653-.12.397-.042.788-.132 1.18-.214 2.014-.465 3.975-1.421 5.327-2.997-.518-2.238-2.42-4.08-4.685-4.6-1.508-.384-3.153-.166-4.524.55"/></svg>
